image/call.svg

<svg width="15" height="15" viewBox="0 0 15 15" fill="none" xmlns="http://www.w3.org/2000/svg">
<g clip-path="url(#clip0_6_183)">
<path d="M14.6064 11.5719L11.5703 9.5472C11.1851 9.29232 10.6686 9.37619 10.3838 9.73991L9.49938 10.877C9.38573 11.0269 9.17913 11.0703 9.01471 10.979L8.84648 10.8862C8.28881 10.5823 7.59493 10.2038 6.19688 8.80531C4.79884 7.40676 4.41965 6.71236 4.11568 6.15571L4.02344 5.98748C3.93084 5.82309 3.97349 5.61561 4.12341 5.50105L5.25973 4.61694C5.62331 4.33207 5.70729 3.81576 5.45271 3.43036L3.42801 0.394309C3.1671 0.00184727 2.64364 -0.115967 2.23973 0.126838L0.970159 0.889469C0.571253 1.12399 0.278592 1.50379 0.153542 1.9493C-0.303626 3.61505 0.0402969 6.48988 4.27518 10.7253C7.64393 14.0938 10.1518 14.9996 11.8756 14.9996C12.2723 15.0013 12.6674 14.9497 13.0504 14.8462C13.496 14.7213 13.8759 14.4286 14.1102 14.0295L14.8736 12.7607C15.1168 12.3567 14.999 11.833 14.6064 11.5719ZM14.4429 12.5042L13.6813 13.7738C13.513 14.0618 13.2398 14.2736 12.9189 14.3647C11.3811 14.7869 8.69451 14.4372 4.62885 10.3716C0.563198 6.30592 0.213533 3.61956 0.635726 2.08156C0.727002 1.76028 0.939021 1.48671 1.22738 1.31817L2.49694 0.556531C2.6722 0.451077 2.89939 0.502193 3.01261 0.6725L4.11246 2.32375L5.03558 3.70829C5.14613 3.87546 5.10981 4.09952 4.9521 4.22322L3.81552 5.10733C3.46963 5.37181 3.37086 5.85036 3.58381 6.23017L3.67406 6.39415C3.99353 6.98006 4.39071 7.70895 5.84074 9.15875C7.29078 10.6085 8.01944 11.0057 8.60508 11.3252L8.76929 11.4157C9.14907 11.6286 9.62765 11.5298 9.89214 11.1839L10.7762 10.0474C10.9 9.88974 11.1239 9.85345 11.2912 9.96388L14.327 11.9886C14.4974 12.1017 14.5485 12.329 14.4429 12.5042Z" fill="#999999"/>
<path d="M8.49995 2.50137C10.8457 2.50398 12.7467 4.40498 12.7493 6.75075C12.7493 6.88881 12.8612 7.0007 12.9993 7.0007C13.1373 7.0007 13.2492 6.88881 13.2492 6.75075C13.2463 4.12898 11.1217 2.00434 8.49995 2.00146C8.3619 2.00146 8.25 2.11336 8.25 2.25142C8.25 2.38947 8.3619 2.50137 8.49995 2.50137Z" fill="#999999"/>
<path d="M8.49995 4.00113C10.0178 4.00291 11.2478 5.23291 11.2496 6.75073C11.2496 6.88878 11.3615 7.00068 11.4995 7.00068C11.6376 7.00068 11.7495 6.88878 11.7495 6.75073C11.7474 4.95691 10.2937 3.50327 8.49995 3.50122C8.3619 3.50122 8.25 3.61312 8.25 3.75117C8.25 3.88923 8.3619 4.00113 8.49995 4.00113Z" fill="#999999"/>
<path d="M8.49995 5.50113C9.18985 5.50195 9.74893 6.06102 9.74978 6.75095C9.74978 6.88901 9.8617 7.0009 9.99973 7.0009C10.1378 7.0009 10.2497 6.88901 10.2497 6.75095C10.2486 5.78506 9.46585 5.0023 8.49995 5.00122C8.3619 5.00122 8.25 5.11312 8.25 5.25117C8.25 5.38923 8.3619 5.50113 8.49995 5.50113Z" fill="#999999"/>
</g>
<defs>
<clipPath id="clip0_6_183">
<rect width="15" height="15" fill="white"/>
</clipPath>
</defs>
</svg>

<svg width="15" height="15" fill="none" xmlns="http://www.w3.org/2000/svg"><g clip-path="url(#a)" fill="#999"><path d="M14.606 11.572 11.57 9.547a.886.886 0 0 0-1.186.193l-.885 1.137a.378.378 0 0 1-.484.102l-.169-.093c-.557-.304-1.251-.682-2.65-2.08-1.397-1.4-1.776-2.094-2.08-2.65l-.093-.169a.378.378 0 0 1 .1-.486l1.137-.884a.887.887 0 0 0 .193-1.187L3.428.394A.882.882 0 0 0 2.24.127L.97.889a1.79 1.79 0 0 0-.816 1.06C-.304 3.615.04 6.49 4.275 10.725 7.644 14.094 10.152 15 11.875 15a4.43 4.43 0 0 0 1.175-.154 1.789 1.789 0 0 0 1.06-.816l.764-1.27a.882.882 0 0 0-.268-1.188Zm-.163.932-.762 1.27c-.168.288-.441.5-.762.59-1.538.423-4.224.073-8.29-3.992C.563 6.306.214 3.62.636 2.082c.091-.322.303-.595.591-.764l1.27-.761a.382.382 0 0 1 .516.115l1.1 1.652.923 1.384a.385.385 0 0 1-.084.515l-1.136.884a.875.875 0 0 0-.232 1.123l.09.164c.32.586.717 1.315 2.167 2.765 1.45 1.45 2.178 1.847 2.764 2.166l.164.09a.875.875 0 0 0 1.123-.231l.884-1.137a.385.385 0 0 1 .515-.083l3.036 2.025c.17.113.222.34.116.515ZM8.5 2.501a4.254 4.254 0 0 1 4.25 4.25.25.25 0 1 0 .5 0A4.755 4.755 0 0 0 8.5 2a.25.25 0 1 0 0 .5Z"/><path d="M8.5 4.001a2.753 2.753 0 0 1 2.75 2.75.25.25 0 1 0 .5 0A3.253 3.253 0 0 0 8.5 3.5a.25.25 0 1 0 0 .5Z"/><path d="M8.5 5.501c.69 0 1.249.56 1.25 1.25a.25.25 0 1 0 .5 0A1.752 1.752 0 0 0 8.5 5a.25.25 0 1 0 0 .5Z"/></g><defs><clipPath id="a"><path fill="#fff" d="M0 0h15v15H0z"/></clipPath></defs></svg>
